X: 39302
T: Take Your Churn
R: hornpipe
M: 4/4
K: Dmajor
|:(3ABc|d2 FA DAFA|DAFA d2 ef|geag edcd|(3efe (3dc B AGFG|
(3ABA FA DAFA|DAFA d2 ea|gfag edcd|(3efe dc d2:|
|:(3cde|f2 df f2 d2|(3gab ef gbeg|f2 df f2 d2|(3cde Ae ceAe|
f2 df fadf|gbef gbeg|ea a2 bgec|d2 dc d2:|

